_site/images/logo.svg

<svg width="94px" height="29px" viewBox="0 0 94 29" version="1.1" xmlns="http://www.w3.org/2000/svg" xmlns:xlink="http://www.w3.org/1999/xlink">
  <g id="Logotipo_de_BBVA" stroke="none" stroke-width="1" fill="none" fill-rule="evenodd">
    <path d="M82.5300619,18.4846 L74.542,18.4846 L78.5064742,5.26543333 L82.5300619,18.4846 L82.5300619,18.4846 Z M81.2731753,0.0058 C83.4216082,0.0058 83.9739794,0.541333333 84.7909072,2.9609 L93.6055876,28.9787333 L85.7531959,28.9787333 L83.8383093,22.7244 L73.2686392,22.7244 L71.3634433,28.9787333 L66.8320619,28.9787333 L75.7213608,0.00386666667 L81.2731753,0.0058 Z" id="Shape" fill="#FFFFFF"></path>
    <path d="M35.3284948,12.7542 L37.7531134,9.14756667 C38.3665361,8.2418 38.4944536,7.67436667 38.4944536,7.03926667 C38.4944536,5.2693 36.9361856,3.78256667 35.1356495,3.78256667 L31.409567,3.78256667 L31.409567,25.0985333 L33.4746598,25.0985333 C36.9294021,25.0985333 39.5507423,23.2377 39.5507423,18.879 C39.5507423,15.2859 37.8606804,13.3661 35.3284948,12.7542 L35.3284948,12.7542 Z M36.7791959,28.9903333 L24.5776082,28.9903333 L24.5776082,0 L37.224,0 C43.1547216,0 45.2198144,4.82076667 42.2185979,9.26646667 L40.7979381,11.368 C50.7474021,16.5193667 47.510701,28.9903333 36.7791959,28.9903333 Z" id="Shape" fill="#FFFFFF"></path>
    <path d="M10.7547629,12.7542 L13.1774433,9.14756667 C13.7898969,8.2418 13.9187835,7.67436667 13.9187835,7.03926667 C13.9187835,5.2693 12.3576082,3.78256667 10.5628866,3.78256667 L6.83389691,3.78256667 L6.83389691,25.0985333 L8.89802062,25.0985333 C12.3527629,25.0985333 14.9741031,23.2377 14.9741031,18.879 C14.9741031,15.2859 13.2821031,13.3661 10.7547629,12.7542 L10.7547629,12.7542 Z M12.2035258,28.9903333 L0,28.9903333 L0,0 L12.650268,0 C18.5790515,0 20.6460825,4.82076667 17.6429278,9.26646667 L16.222268,11.368 C26.1697938,16.5193667 22.9350309,28.9903333 12.2035258,28.9903333 Z" id="Shape" fill="#FFFFFF"></path>
    <path d="M65.6449485,0 L70.2325361,0 L61.3781237,28.9758333 L54.4056495,28.9719667 L44.9058351,0.00386666667 L50.0409485,0 C52.0207629,0 52.5430928,0.509433333 53.58,3.79223333 L59.0775464,22.0100333 L65.6449485,0" id="Shape" fill="#FFFFFF"></path>
  </g>
</svg>

<svg width="94" height="29" viewBox="0 0 94 29" xmlns="http://www.w3.org/2000/svg"><path d="M82.53 18.485h-7.988l3.964-13.22 4.024 13.22zM81.273.005c2.149 0 2.701.536 3.518 2.956l8.815 26.018h-7.853l-1.915-6.255h-10.57l-1.905 6.255h-4.53L75.72.004l5.552.002zM35.328 12.754l2.425-3.606c.614-.906.741-1.474.741-2.109 0-1.77-1.558-3.256-3.358-3.256H31.41v21.316h2.065c3.454 0 6.076-1.861 6.076-6.22 0-3.593-1.69-5.513-4.223-6.125zM36.78 28.99H24.578V0h12.646c5.93 0 7.996 4.82 4.995 9.266l-1.421 2.102c9.95 5.151 6.713 17.622-4.019 17.622zM10.755 12.754l2.422-3.606c.613-.906.742-1.474.742-2.109 0-1.77-1.561-3.256-3.356-3.256h-3.73v21.316h2.065c3.455 0 6.076-1.861 6.076-6.22 0-3.593-1.692-5.513-4.22-6.125zm1.449 16.236H0V0h12.65c5.93 0 7.996 4.82 4.993 9.266l-1.42 2.102c9.947 5.151 6.712 17.622-4.02 17.622zM65.645 0h4.588l-8.855 28.976-6.972-.004-9.5-28.968L50.04 0c1.98 0 2.502.51 3.539 3.792l5.498 18.218L65.645 0" fill="#FFF" fill-rule="evenodd"/></svg>
